src/assets/skills/git.svg

<svg height="100pt" viewBox="0 0 100 100" width="100pt" xmlns="http://www.w3.org/2000/svg"><path d="m98.109 45.541-43.663-43.659c-2.515-2.512-6.59-2.512-9.115 0l-9.047 9.062 11.5 11.5c2.687-.897 5.747-.29 7.872 1.838 2.15 2.147 2.74 5.24 1.825 7.915l11.075 11.085c2.687-.928 5.778-.325 7.915 1.812 3.003 3 3.003 7.85 0 10.85-2.997 2.997-7.837 2.997-10.834 0-2.247-2.253-2.809-5.572-1.684-8.315l-10.372-10.316v27.187c.734.36 1.425.847 2.034 1.45 2.972 3.003 2.972 7.847 0 10.835-2.997 3.003-7.872 3.003-10.872 0-2.996-2.997-2.996-7.829 0-10.825.76-.75 1.613-1.316 2.522-1.691v-27.453c-.903-.378-1.765-.925-2.5-1.672-2.272-2.272-2.815-5.59-1.65-8.372l-11.3-11.353-29.94 29.922c-2.5 2.522-2.5 6.6 0 9.122l43.665 43.653c2.516 2.515 6.591 2.515 9.11 0l43.459-43.459c2.521-2.513 2.521-6.591 0-9.113z" fill="#f05032"/></svg>

<?xml version="1.0" encoding="UTF-8" standalone="no"?><!-- Generator: Gravit.io --><svg xmlns="http://www.w3.org/2000/svg" xmlns:xlink="http://www.w3.org/1999/xlink" style="isolation:isolate" viewBox="0 0 100 100" width="100pt" height="100pt"><path d=" M 98.109 45.541 L 54.446 1.882 C 51.931 -0.63 47.856 -0.63 45.331 1.882 L 36.284 10.944 L 47.784 22.444 C 50.471 21.547 53.531 22.154 55.656 24.282 C 57.806 26.429 58.396 29.522 57.481 32.197 L 68.556 43.282 C 71.243 42.354 74.334 42.957 76.471 45.094 C 79.474 48.094 79.474 52.944 76.471 55.944 C 73.474 58.941 68.634 58.941 65.637 55.944 C 63.39 53.691 62.828 50.372 63.953 47.629 L 53.581 37.313 L 53.581 64.5 C 54.315 64.86 55.006 65.347 55.615 65.95 C 58.587 68.953 58.587 73.797 55.615 76.785 C 52.618 79.788 47.743 79.788 44.743 76.785 C 41.747 73.788 41.747 68.956 44.743 65.96 C 45.503 65.21 46.356 64.644 47.265 64.269 L 47.265 36.816 C 46.362 36.438 45.5 35.891 44.765 35.144 C 42.493 32.872 41.95 29.554 43.115 26.772 L 31.815 15.419 L 1.875 45.341 C -0.625 47.863 -0.625 51.941 1.875 54.463 L 45.54 98.116 C 48.056 100.631 52.131 100.631 54.65 98.116 L 98.109 54.657 C 100.63 52.144 100.63 48.066 98.109 45.544 L 98.109 45.541 Z " fill="rgb(240,80,50)"/></svg>
